_site/img/iphone-6.svg

<svg xmlns="http://www.w3.org/2000/svg" viewBox="0 0 352 178" enable-background="new 0 0 352 178"><style type="text/css">.st0{fill:none;} .st1{fill:#94959A;} .st2{opacity:0.2;} .st3{fill:#787A7D;} .st4{fill:#292929;} .st5{fill:#333333;} .st6{opacity:0.4;fill:none;stroke:#333333;stroke-width:1.25;stroke-linecap:round;stroke-miterlimit:10;} .st7{opacity:0.4;fill:none;stroke:#333333;stroke-width:1.25;stroke-linecap:round;stroke-linejoin:round;stroke-miterlimit:10;} .st8{fill:#666666;} .st9{opacity:0.4;fill:#333333;} .st10{opacity:0.4;} .st11{opacity:0.5;fill:none;stroke:#FFFFFF;stroke-width:1.875;stroke-linecap:round;stroke-miterlimit:10;}</style><circle class="st0" cx="29.1" cy="112.5" r="1.4"/><path class="st1" d="M50.8 169.6h13.7v1.7h-13.7zm60.7 0h25.6v1.7h-25.6zm-31.1-169.4h25.6v1.7h-25.6zm0 169.4h25.6v1.7h-25.6z"/><path d="M319.4 177.1c14.2 0 25.7-11.6 25.7-25.7v-116.3c0-14.2-11.6-25.7-25.7-25.7h-1.8v167.7h1.8zm-287.6-167.7h280.8v167.7h-280.8zm-5.3 0c-14.2 0-25.8 11.5-25.8 25.7v116.2c0 14.2 11.6 25.7 25.7 25.7h.3v-167.6h-.2zm.3 0h5v167.7h-5zm285.8 0h5v167.7h-5z" class="st2"/><path class="st1" d="M325.6 169.6c14.2 0 25.7-11.6 25.7-25.7v-116.3c0-14.2-11.6-25.7-25.7-25.7h-1.8v167.7h1.8zm-287.6-167.7h280.8v167.7h-280.8zm-5.3 0c-14.1 0-25.7 11.5-25.7 25.7v116.2c0 14.2 11.6 25.7 25.7 25.7h.3v-167.6h-.3z"/><path class="st3" d="M33 1.9h5v167.7h-5zm285.8 0h5v167.7h-5z"/><path class="st4" d="M348.3 143.8c0 12.5-10.1 22.6-22.6 22.6h-293c-12.5 0-22.6-10.1-22.6-22.6v-116.2c0-12.4 10.2-22.6 22.6-22.6h292.9c12.5 0 22.6 10.1 22.6 22.6v116.2z"/><path class="st5" d="M48.9 12.9h259.6v145.6h-259.6zm0 0h259.6v145.6h-259.6zm.7.6h258.4v144.3h-258.4z"/><path class="st6" d="M283.2 165.8h-250.5c-6.1 0-11.6-2.5-15.5-6.5m330.4-115.2v99.7c0 9.1-5.5 16.9-13.4 20.2m-90.4-158.4h77.5m-88.4 0h4.1m-204.3 0h139.7"/><path class="st7" d="M19.9 9.8c1.6-1.1 3.3-2 5.1-2.7"/><path class="st0" d="M310.7 6.9h14.9c11.4 0 20.7 9.3 20.7 20.7m.1 0v116.2c0 11.4-9.3 20.7-20.7 20.7h-293c-11.4 0-20.7-9.3-20.7-20.7v-116.2c0-11.4 9.3-20.7 20.7-20.7h278"/><circle class="st8" cx="327.9" cy="86.1" r="13.1"/><path class="st9" d="M314.7 86.1c0 6.7 5 12.2 11.4 13l-8.5-21.1c-1.8 2.2-2.9 5-2.9 8.1zm25.9 3.1c.2-1 .4-2 .4-3.1 0-4.7-2.4-8.7-6.1-11.1l5.7 14.2z"/><circle class="st4" cx="327.9" cy="86.1" r="11.3"/><path class="st5" d="M30.9 74.1v23.2c0 .9-.7 1.6-1.6 1.6-.9 0-1.6-.7-1.6-1.6v-23.2c0-.9.7-1.6 1.6-1.6.9.1 1.6.8 1.6 1.6z"/><circle class="st5" cx="29.1" cy="112.5" r="2.8"/><circle class="st5" cx="19.1" cy="85.7" r="1.3"/><path class="st9" d="M64.5 169.6l-.7-.6h-12.3l-.7.6m55.2 0l-.7-.6h-24.1l-.8.6m0-167.7l.8.6h24.1l.7-.6m31.1 167.7l-.7-.6h-24.2l-.7.6"/><path class="st11" d="M337.1 159.6c-3.2 2.4-7.2 3.7-11.5 3.7h-292.9c-6.8 0-12.9-3.5-16.4-8.9m328-5.1c-.5 1.7-1.3 3.4-2.2 4.9m-34.5-146.1h18.1c10.8 0 19.5 8.7 19.5 19.5v7.7m-52.6-27.2h8.7m-287.1 13.6c2.5-7.9 9.9-13.6 18.6-13.6h174.8m-192.8 143.3c-.6-1.5-1.1-3.1-1.3-4.8"/><path id="Content" class="st5" d="M50 14h258v144h-258z"/></svg>

<svg xmlns="http://www.w3.org/2000/svg" viewBox="0 0 352 178"><style>.st0{fill:none}.st1{fill:#94959a}.st2{opacity:.2}.st3{fill:#787a7d}.st4{fill:#292929}.st5{fill:#333}.st6,.st7{opacity:.4;fill:none;stroke:#333;stroke-width:1.25;stroke-linecap:round;stroke-miterlimit:10}.st7{stroke-linejoin:round}.st8{fill:#666}.st9{fill:#333}.st9,.st10{opacity:.4}.st11{opacity:.5;fill:none;stroke:#FFF;stroke-width:1.875;stroke-linecap:round;stroke-miterlimit:10}</style><circle class="st0" cx="29.1" cy="112.5" r="1.4"/><path class="st1" d="M50.8 169.6h13.7v1.7H50.8zm60.7 0h25.6v1.7h-25.6zM80.4.2H106v1.7H80.4zm0 169.4H106v1.7H80.4z"/><path d="M319.4 177.1c14.2 0 25.7-11.6 25.7-25.7V35.1c0-14.2-11.6-25.7-25.7-25.7h-1.8v167.7h1.8zM31.8 9.4h280.8v167.7H31.8zm-5.3 0C12.3 9.4.7 20.9.7 35.1v116.2c0 14.2 11.6 25.7 25.7 25.7h.3V9.4h-.2zm.3 0h5v167.7h-5zm285.8 0h5v167.7h-5z" class="st2"/><path class="st1" d="M325.6 169.6c14.2 0 25.7-11.6 25.7-25.7V27.6c0-14.2-11.6-25.7-25.7-25.7h-1.8v167.7h1.8zM38 1.9h280.8v167.7H38zm-5.3 0C18.6 1.9 7 13.4 7 27.6v116.2c0 14.2 11.6 25.7 25.7 25.7h.3V1.9h-.3z"/><path class="st3" d="M33 1.9h5v167.7h-5zm285.8 0h5v167.7h-5z"/><path class="st4" d="M348.3 143.8c0 12.5-10.1 22.6-22.6 22.6h-293c-12.5 0-22.6-10.1-22.6-22.6V27.6C10.1 15.2 20.3 5 32.7 5h292.9c12.5 0 22.6 10.1 22.6 22.6v116.2z"/><path class="st5" d="M48.9 12.9h259.6v145.6H48.9zm0 0h259.6v145.6H48.9zm.7.6H308v144.3H49.6z"/><path class="st6" d="M283.2 165.8H32.7c-6.1 0-11.6-2.5-15.5-6.5M347.6 44.1v99.7c0 9.1-5.5 16.9-13.4 20.2M243.8 5.6h77.5m-88.4 0h4.1m-204.3 0h139.7"/><path class="st7" d="M19.9 9.8c1.6-1.1 3.3-2 5.1-2.7"/><path class="st0" d="M310.7 6.9h14.9c11.4 0 20.7 9.3 20.7 20.7m.1 0v116.2c0 11.4-9.3 20.7-20.7 20.7h-293c-11.4 0-20.7-9.3-20.7-20.7V27.6c0-11.4 9.3-20.7 20.7-20.7h278"/><circle class="st8" cx="327.9" cy="86.1" r="13.1"/><path class="st9" d="M314.7 86.1c0 6.7 5 12.2 11.4 13L317.6 78c-1.8 2.2-2.9 5-2.9 8.1zm25.9 3.1c.2-1 .4-2 .4-3.1 0-4.7-2.4-8.7-6.1-11.1l5.7 14.2z"/><circle class="st4" cx="327.9" cy="86.1" r="11.3"/><path class="st5" d="M30.9 74.1v23.2c0 .9-.7 1.6-1.6 1.6-.9 0-1.6-.7-1.6-1.6V74.1c0-.9.7-1.6 1.6-1.6.9.1 1.6.8 1.6 1.6z"/><circle class="st5" cx="29.1" cy="112.5" r="2.8"/><circle class="st5" cx="19.1" cy="85.7" r="1.3"/><path class="st9" d="M64.5 169.6l-.7-.6H51.5l-.7.6m55.2 0l-.7-.6H81.2l-.8.6m0-167.7l.8.6h24.1l.7-.6m31.1 167.7l-.7-.6h-24.2l-.7.6"/><path class="st11" d="M337.1 159.6c-3.2 2.4-7.2 3.7-11.5 3.7H32.7c-6.8 0-12.9-3.5-16.4-8.9m328-5.1c-.5 1.7-1.3 3.4-2.2 4.9M307.6 8.1h18.1c10.8 0 19.5 8.7 19.5 19.5v7.7M292.6 8.1h8.7M14.2 21.7c2.5-7.9 9.9-13.6 18.6-13.6h174.8M14.8 151.4c-.6-1.5-1.1-3.1-1.3-4.8"/><path id="Content" class="st5" d="M50 14h258v144H50z"/></svg>
